assets/trix/images/code.svg

<?xml version="1.0" encoding="utf-8"?>
<!-- Generated by IcoMoon.io -->
<!DOCTYPE svg PUBLIC "-//W3C//DTD SVG 1.1//EN" "http://www.w3.org/Graphics/SVG/1.1/DTD/svg11.dtd">
<svg version="1.1" xmlns="http://www.w3.org/2000/svg" xmlns:xlink="http://www.w3.org/1999/xlink" width="24" height="24" viewBox="0 0 24 24">
<path d="M18.17 12l-3.17 3.17 1.415 1.415 4.585-4.585-4.585-4.585-1.415 1.415 3.17 3.17zM5.83 12l3.17-3.17-1.415-1.415-4.585 4.585 4.585 4.585 1.415-1.415-3.17-3.17z" fill="#000"></path>
</svg>

<svg xmlns="http://www.w3.org/2000/svg" width="24" height="24" viewBox="0 0 24 24"><path d="M18.2 12L15 15.2l1.4 1.4L21 12l-4.6-4.6L15 8.8l3.2 3.2zM5.8 12L9 8.8 7.6 7.4 3 12l4.6 4.6L9 15.2 5.8 12z"/></svg>
